Papirus/22x22/panel/user-status-new.svg

<?xml version="1.0" encoding="UTF-8" standalone="no"?>
<svg id="svg6530" xmlns:rdf="http://www.w3.org/1999/02/22-rdf-syntax-ns#" xmlns="http://www.w3.org/2000/svg" height="22" width="22" version="1.1" xmlns:cc="http://creativecommons.org/ns#" viewBox="0 0 22 22" xmlns:dc="http://purl.org/dc/elements/1.1/">
 <metadata id="metadata6535">
  <rdf:RDF>
   <cc:Work rdf:about="">
    <dc:format>image/svg+xml</dc:format>
    <dc:type rdf:resource="http://purl.org/dc/dcmitype/StillImage"/>
    <dc:title/>
   </cc:Work>
  </rdf:RDF>
 </metadata>
 <rect id="rect11252" style="color:#bebebe" height="22" width="22" y="-.000014648" x="0" fill="none"/>
 <path id="path3003-2" fill="#fff" d="m5.9688 5s-1.9688 0-1.9688 2v3 2 1a3 3 0 0 1 3 -3 3 3 0 0 1 3 3 3 3 0 0 1 -0.7676 2h1.7676l2 3.004 2-3.004h1s2 0 2-2v-6c0-2-2-2-2-2h-10.031z"/>
 <circle id="path4142" cy="13" cx="7" r="2" fill="#5294e2"/>
</svg>

<?xml version="1.0" encoding="UTF-8" standalone="no"?>
<svg xmlns:dc="http://purl.org/dc/elements/1.1/" xmlns:cc="http://creativecommons.org/ns#" xmlns:rdf="http://www.w3.org/1999/02/22-rdf-syntax-ns#" xmlns:svg="http://www.w3.org/2000/svg" xmlns="http://www.w3.org/2000/svg" version="1.1" width="22" viewBox="0 0 22 22" height="22" id="svg6530">
    <metadata id="metadata6535">
        <rdf:RDF>
            <cc:Work rdf:about="">
                <dc:format>
                    image/svg+xml
                </dc:format>
                <dc:type rdf:resource="http://purl.org/dc/dcmitype/StillImage"/>
                <dc:title/>
            </cc:Work>
        </rdf:RDF>
    </metadata>
    <rect id="rect11252" style="color:#bebebe;fill:none" height="22" width="22" y="-1.4648437e-05" x="0"/>
    <path id="path3003-2" d="M 5.96875 5 C 5.96875 5 4 5 4 7 L 4 10 L 4 12 L 4 13 A 3 3 0 0 1 7 10 A 3 3 0 0 1 10 13 A 3 3 0 0 1 9.2324219 15 L 11 15 L 13 18.003906 L 15 15 L 16 15 C 16 15 18 15 18 13 L 18 7 C 18 5 16 5 16 5 L 5.96875 5 z " style="fill:#ffffff"/>
    <circle r="2" cy="13" cx="7" id="path4142" style="opacity:1;fill:#5294e2;fill-opacity:1;stroke:none;stroke-width:2;stroke-linecap:butt;stroke-linejoin:miter;stroke-miterlimit:4;stroke-dasharray:none;stroke-opacity:1"/>
</svg>
